lib/svgs/team-briefcase.svg

<?xml version="1.0" encoding="UTF-8"?>
<svg width="16px" height="16px" viewBox="0 0 16 16" version="1.1" xmlns="http://www.w3.org/2000/svg" xmlns:xlink="http://www.w3.org/1999/xlink">
    <!-- Generator: sketchtool 51.3 (57544) - http://www.bohemiancoding.com/sketch -->
    <title>team/team-briefcase</title>
    <desc>Created with sketchtool.</desc>
    <defs></defs>
    <g id="Icons" stroke="none" stroke-width="1" fill="none" fill-rule="evenodd">
        <g id="Web" transform="translate(-387.000000, -2394.000000)" fill="#000000">
            <g id="team/team-briefcase" transform="translate(387.000000, 2394.000000)">
                <path d="M14.6666667,12.0332845 L9.33333333,12.0332845 C9.33333333,12.4332845 9.06666667,12.6999512 8.66666667,12.6999512 L7.33333333,12.6999512 C6.93333333,12.6999512 6.66666667,12.4332845 6.66666667,12.0332845 L1.33333333,12.0332845 C0.933333333,12.0332845 0.666666667,12.2999512 0.666666667,12.6999512 L0.666666667,14.6999512 C0.666666667,15.0999512 0.933333333,15.3666178 1.33333333,15.3666178 L14.6666667,15.3666178 C15.0666667,15.3666178 15.3333333,15.0999512 15.3333333,14.6999512 L15.3333333,12.6999512 C15.3333333,12.2999512 15.0666667,12.0332845 14.6666667,12.0332845 L14.6666667,12.0332845 M15.3333333,2.69995117 L11.3333333,2.69995117 L11.3333333,1.36661784 C11.3333333,0.966617839 11.0666667,0.699951172 10.6666667,0.699951172 L5.33333333,0.699951172 C4.93333333,0.699951172 4.66666667,0.966617839 4.66666667,1.36661784 L4.66666667,2.69995117 L0.666666667,2.69995117 C0.266666667,2.69995117 0,2.96661784 0,3.36661784 L0,10.0332845 C0,10.4332845 0.266666667,10.6999512 0.666666667,10.6999512 L6.66666667,10.6999512 L6.66666667,10.0332845 C6.66666667,9.63328451 6.93333333,9.36661784 7.33333333,9.36661784 L8.66666667,9.36661784 C9.06666667,9.36661784 9.33333333,9.63328451 9.33333333,10.0332845 L9.33333333,10.6999512 L15.3333333,10.6999512 C15.7333333,10.6999512 16,10.4332845 16,10.0332845 L16,3.36661784 C16,2.96661784 15.7333333,2.69995117 15.3333333,2.69995117 L15.3333333,2.69995117" id="Shape"></path>
            </g>
        </g>
    </g>
</svg>

<svg xmlns="http://www.w3.org/2000/svg" viewBox="0 0 16 16">
    <path d="M14.667 12.033H9.333c0 .4-.266.667-.666.667H7.333c-.4 0-.666-.267-.666-.667H1.333c-.4 0-.666.267-.666.667v2c0 .4.266.667.666.667h13.334c.4 0 .666-.267.666-.667v-2c0-.4-.266-.667-.666-.667m.666-9.333h-4V1.367c0-.4-.266-.667-.666-.667H5.333c-.4 0-.666.267-.666.667V2.7h-4c-.4 0-.667.267-.667.667v6.666c0 .4.267.667.667.667h6v-.667c0-.4.266-.666.666-.666h1.334c.4 0 .666.266.666.666v.667h6c.4 0 .667-.267.667-.667V3.367c0-.4-.267-.667-.667-.667"/>
</svg>
